src/icons/decrease.svg

<?xml version="1.0" encoding="UTF-8"?>
<svg xmlns="http://www.w3.org/2000/svg" xmlns:xlink="http://www.w3.org/1999/xlink" width="32" height="32" viewBox="0 0 32 32" version="1.1">
<g id="surface1">
<path style=" stroke:none;fill-rule:nonzero;fill:rgb(0%,0%,0%);fill-opacity:1;" d="M 1.101562 0.179688 L 0.179688 1.101562 L 9.78125 10.699219 L 10.238281 11.140625 L 10.699219 10.699219 L 12.800781 8.601562 L 20.019531 15.820312 L 20.480469 16.261719 L 20.941406 15.820312 L 23.039062 13.71875 L 29.800781 20.480469 L 25.601562 20.480469 L 25.601562 21.761719 L 32 21.761719 L 32 14.71875 L 30.71875 14.71875 L 30.71875 19.558594 L 23.5 12.339844 L 23.039062 11.898438 L 22.578125 12.339844 L 20.480469 14.441406 L 13.261719 7.21875 L 12.800781 6.78125 L 12.339844 7.21875 L 10.238281 9.320312 Z M 0 5.121094 L 0 32 L 1.28125 32 L 1.28125 5.121094 Z M 3.839844 8.960938 L 3.839844 32 L 5.121094 32 L 5.121094 8.960938 Z M 7.679688 12.800781 L 7.679688 32 L 8.960938 32 L 8.960938 12.800781 Z M 11.519531 12.800781 L 11.519531 32 L 12.800781 32 L 12.800781 12.800781 Z M 15.359375 15.359375 L 15.359375 32 L 16.640625 32 L 16.640625 15.359375 Z M 23.039062 17.921875 L 23.039062 32 L 24.320312 32 L 24.320312 17.921875 Z M 19.199219 19.199219 L 19.199219 32 L 20.480469 32 L 20.480469 19.199219 Z M 26.878906 24.320312 L 26.878906 32 L 28.160156 32 L 28.160156 24.320312 Z M 30.71875 24.320312 L 30.71875 32 L 32 32 L 32 24.320312 Z M 30.71875 24.320312 "/>
</g>
</svg>

<svg role="img" viewBox="0 0 32 32" xmlns="http://www.w3.org/2000/svg"><path d="m1.102.18-.922.922 9.601 9.597.457.442.461-.442 2.102-2.097 7.219 7.218.46.442.461-.442 2.098-2.101 6.762 6.761h-4.2v1.282H32v-7.043h-1.281v4.84l-7.219-7.22-.46-.44-.462.44-2.098 2.102-7.218-7.222-.461-.438-.461.438-2.102 2.101ZM0 5.12V32h1.281V5.121Zm3.84 3.84V32h1.28V8.96Zm3.84 3.84V32h1.28V12.8Zm3.84 0V32h1.28V12.8Zm3.84 2.558V32h1.28V15.36Zm7.68 2.563V32h1.28V17.922Zm-3.84 1.277V32h1.28V19.2Zm7.679 5.121V32h1.281v-7.68Zm3.84 0V32H32v-7.68Zm0 0" style="stroke:none;fill-rule:nonzero;fill:rgb(0%,0%,0%);fill-opacity:1"/></svg>
